X:18593
T:Wendy's Waltz
S:Andy Hornby
R:Waltz
O:England
M:3/4
C:Andy Hornby
A:Lancaster
K:ADor
E2 A2 c2|e2 de c2|B2 AB A2|Bd cB AG| \
E2 A2 c2|e2 de c2|BG Gd cB|1 A6 :|2 A4||
|:ed|\
e2 de c2|B2 AB G2|GA Bd cB|cB AG ed|\
e2 de c2|e2 de c2|B2 AB G2|GA Bd cB|1A4 :|2 A6||
W:Copyright Andy Hornby


